Sources/FrostedUI/Resources/Icons.xcassets/handWave32.imageset/hand-wave-32.svg

<svg width="32" height="32" viewBox="0 0 32 32" fill="none" xmlns="http://www.w3.org/2000/svg" data-fui-icon="true">
  <path
    d="M10.52 4.86292C11.5938 3.78924 13.3348 3.7893 14.4087 4.86292L17.0122 7.46643C17.1964 6.5994 17.6245 5.77315 18.2983 5.09924L18.4058 5.00061C18.9621 4.54726 19.7837 4.58071 20.3022 5.09924L25.2515 10.0485C29.4493 14.2466 29.4495 21.0536 25.2515 25.2516C21.0534 29.4496 14.2464 29.4494 10.0483 25.2516L3.92041 19.1227C2.84663 18.0487 2.84652 16.3079 3.92041 15.234C4.23897 14.9155 4.61693 14.6936 5.01807 14.5641L4.86279 14.4088C3.78922 13.3349 3.78918 11.594 4.86279 10.5201C5.23683 10.1461 5.69282 9.90512 6.17236 9.79163C5.73449 8.78568 5.92584 7.57139 6.74854 6.74866C7.57117 5.92602 8.78463 5.73578 9.79053 6.17346C9.90389 5.69346 10.1457 5.23727 10.52 4.86292ZM3.75635 22.4088C4.16503 22.342 4.55074 22.6193 4.61768 23.028C4.69512 23.501 5.0498 24.2311 5.62451 24.9235C6.19594 25.6119 6.88736 26.1451 7.53857 26.3385C7.93542 26.4563 8.16185 26.8733 8.04443 27.2701C7.92657 27.6671 7.50882 27.8937 7.11182 27.776C6.07107 27.4669 5.14617 26.6967 4.47021 25.8824C3.79765 25.0722 3.27395 24.0998 3.13818 23.2701C3.07138 22.8614 3.34772 22.4758 3.75635 22.4088ZM13.3481 5.92346C12.86 5.43565 12.0686 5.43556 11.5806 5.92346C11.0925 6.4115 11.0927 7.20287 11.5806 7.69104L16.2944 12.4059C16.5873 12.6988 16.5873 13.1735 16.2944 13.4664C16.0015 13.7591 15.5267 13.7592 15.2339 13.4664L9.57764 7.8092C9.08949 7.32105 8.29722 7.32107 7.80908 7.8092C7.32111 8.29723 7.3213 9.08862 7.80908 9.57678L13.4663 15.234C13.7591 15.5269 13.7591 16.0017 13.4663 16.2946C13.1734 16.5874 12.6987 16.5874 12.4058 16.2946L7.69092 11.5807C7.20274 11.0928 6.41138 11.0926 5.92334 11.5807C5.43551 12.0688 5.43555 12.8602 5.92334 13.3483L11.5806 19.0055C11.8731 19.2984 11.8734 19.7733 11.5806 20.066C11.2878 20.3587 10.8129 20.3586 10.52 20.066L6.74854 16.2946C6.26039 15.8066 5.46906 15.8065 4.98096 16.2946C4.49285 16.7827 4.49297 17.574 4.98096 18.0621L11.1099 24.191C14.7222 27.8029 20.5787 27.8032 24.1909 24.191C27.8032 20.5788 27.803 14.7213 24.1909 11.109L19.3013 6.21936C18.5464 7.01315 18.2686 8.09456 18.4712 9.10217C18.5931 9.70763 18.8883 10.2849 19.3589 10.7555L20.5913 11.9889C20.9176 12.3154 21.0124 12.8077 20.8306 13.2321C20.1586 14.8005 20.5097 16.6202 21.7163 17.8268C22.0089 18.1196 22.0088 18.5945 21.7163 18.8873C21.4235 19.1801 20.9487 19.18 20.6558 18.8873C19.0753 17.3069 18.5742 14.9525 19.3569 12.8756L18.2983 11.817C17.6728 11.1915 17.2588 10.4322 17.0552 9.63147L13.3481 5.92346ZM23.2085 3.47913C25.3193 3.70644 27.0724 5.17303 27.645 6.96936C27.7706 7.36383 27.553 7.78583 27.1587 7.91174C26.7641 8.03752 26.3422 7.81897 26.2163 7.42444C25.8308 6.21549 24.5907 5.13754 23.0483 4.97131C22.6366 4.927 22.3381 4.55688 22.3823 4.14514C22.4266 3.73338 22.7967 3.43493 23.2085 3.47913Z"
    fill="currentColor"
  />
</svg>

<svg xmlns="http://www.w3.org/2000/svg" width="32" height="32" fill="none" data-fui-icon="true" viewBox="0 0 32 32"><path fill="currentColor" d="M10.52 4.863a2.75 2.75 0 0 1 3.889 0l2.603 2.603A4.73 4.73 0 0 1 18.298 5.1l.108-.098a1.42 1.42 0 0 1 1.896.098l4.95 4.95c4.197 4.198 4.198 11.005 0 15.203s-11.006 4.197-15.204 0l-6.128-6.13a2.75 2.75 0 0 1 1.098-4.558l-.155-.155a2.75 2.75 0 0 1 0-3.889c.374-.374.83-.615 1.31-.728A2.75 2.75 0 0 1 9.79 6.174c.113-.48.355-.937.729-1.311M3.756 22.409a.75.75 0 0 1 .862.619c.077.473.432 1.203 1.007 1.896.57.688 1.262 1.221 1.914 1.415a.75.75 0 1 1-.427 1.437c-1.04-.31-1.966-1.08-2.642-1.894-.672-.81-1.196-1.782-1.332-2.612a.75.75 0 0 1 .618-.861m9.592-16.486a1.25 1.25 0 0 0-1.767 1.768l4.713 4.715a.75.75 0 1 1-1.06 1.06L9.578 7.81a1.251 1.251 0 0 0-1.769 1.768l5.657 5.657a.75.75 0 0 1-1.06 1.06L7.69 11.582a1.25 1.25 0 0 0-1.768 1.767l5.658 5.658a.75.75 0 0 1-1.061 1.06l-3.771-3.771a1.25 1.25 0 0 0-1.768 1.767l6.129 6.129a9.25 9.25 0 1 0 13.08-13.082l-4.889-4.89a3.246 3.246 0 0 0 .058 4.536l1.232 1.234c.327.326.421.819.24 1.243a4.17 4.17 0 0 0 .885 4.595.75.75 0 0 1-1.06 1.06 5.67 5.67 0 0 1-1.3-6.011l-1.058-1.059a4.73 4.73 0 0 1-1.243-2.186zm9.86-2.444c2.111.227 3.864 1.694 4.437 3.49a.75.75 0 1 1-1.429.455c-.385-1.209-1.625-2.286-3.168-2.453a.75.75 0 0 1 .16-1.492"/></svg>
